logo/aws-elb.svg

<?xml version="1.0" encoding="UTF-8"?>
<svg width="256px" height="256px" viewBox="0 0 256 256" version="1.1" xmlns="http://www.w3.org/2000/svg" xmlns:xlink="http://www.w3.org/1999/xlink" preserveAspectRatio="xMidYMid">
    <title>AWS Elastic Load Balancing (ELB)</title>
    <defs>
        <linearGradient x1="0%" y1="100%" x2="100%" y2="0%" id="linearGradient-1">
            <stop stop-color="#4D27A8" offset="0%"></stop>
            <stop stop-color="#A166FF" offset="100%"></stop>
        </linearGradient>
    </defs>
    <g>
        <rect fill="url(#linearGradient-1)" x="0" y="0" width="256" height="256"></rect>
        <path d="M96,169.6 C73.0624,169.6 54.4,150.9376 54.4,128 C54.4,105.0624 73.0624,86.4 96,86.4 C118.9376,86.4 137.6,105.0624 137.6,128 C137.6,150.9376 118.9376,169.6 96,169.6 M192,188.8 C192,195.8592 186.2592,201.6 179.2,201.6 C172.1408,201.6 166.4,195.8592 166.4,188.8 C166.4,181.7408 172.1408,176 179.2,176 C186.2592,176 192,181.7408 192,188.8 M179.2,54.4 C186.2592,54.4 192,60.1408 192,67.2 C192,74.2592 186.2592,80 179.2,80 C172.1408,80 166.4,74.2592 166.4,67.2 C166.4,60.1408 172.1408,54.4 179.2,54.4 M188.8,115.2 C195.8592,115.2 201.6,120.9408 201.6,128 C201.6,135.0592 195.8592,140.8 188.8,140.8 C181.7408,140.8 176,135.0592 176,128 C176,120.9408 181.7408,115.2 188.8,115.2 M143.8368,131.2 L169.888,131.2 C171.4176,140.2656 179.3056,147.2 188.8,147.2 C199.3888,147.2 208,138.5888 208,128 C208,117.4112 199.3888,108.8 188.8,108.8 C179.3056,108.8 171.4176,115.7344 169.888,124.8 L143.8368,124.8 C143.4336,118.7168 141.9008,112.9504 139.4304,107.6928 L167.8272,82.6336 C171.0144,84.9888 174.9408,86.4 179.2,86.4 C189.7888,86.4 198.4,77.7888 198.4,67.2 C198.4,56.6112 189.7888,48 179.2,48 C168.6112,48 160,56.6112 160,67.2 C160,71.2192 161.2448,74.9472 163.3632,78.0352 L136.2592,101.9488 C127.6928,88.7616 112.8672,80 96,80 C69.5328,80 48,101.5328 48,128 C48,154.4672 69.5328,176 96,176 C112.8672,176 127.6928,167.2384 136.2592,154.0512 L163.3632,177.9648 C161.2448,181.0528 160,184.7808 160,188.8 C160,199.3888 168.6112,208 179.2,208 C189.7888,208 198.4,199.3888 198.4,188.8 C198.4,178.2112 189.7888,169.6 179.2,169.6 C174.9408,169.6 171.0144,171.0112 167.8272,173.3664 L139.4304,148.3072 C141.9008,143.0496 143.4336,137.2832 143.8368,131.2" fill="#FFFFFF"></path>
    </g>
</svg>

<svg viewBox="0 0 256 256" xmlns="http://www.w3.org/2000/svg"><defs><linearGradient id="a" x1="0%" x2="100%" y1="100%" y2="0%"><stop offset="0%" stop-color="#4D27A8"/><stop offset="100%" stop-color="#A166FF"/></linearGradient></defs><path fill="url(#a)" d="M0 0h256v256H0Z"/><path fill="#FFF" d="M96 169.6c-22.94 0-41.6-18.67-41.6-41.6 0-22.94 18.66-41.6 41.6-41.6 22.93 0 41.6 18.66 41.6 41.6 0 22.93-18.67 41.6-41.6 41.6m96 19.2c0 7.05-5.75 12.8-12.8 12.8 -7.06 0-12.8-5.75-12.8-12.8 0-7.06 5.74-12.8 12.8-12.8 7.05 0 12.8 5.74 12.8 12.8M179.2 54.4c7.05-.001 12.8 5.74 12.8 12.8 0 7.05-5.75 12.8-12.8 12.8 -7.06 0-12.8-5.75-12.8-12.8 0-7.06 5.74-12.8 12.8-12.8m9.6 60.8c7.05 0 12.8 5.74 12.8 12.8 0 7.05-5.75 12.8-12.8 12.8 -7.06 0-12.8-5.75-12.8-12.8 0-7.06 5.74-12.8 12.8-12.8m-44.97 16h26.05c1.52 9.06 9.41 16 18.91 16 10.58 0 19.2-8.62 19.2-19.2 0-10.59-8.62-19.2-19.2-19.2 -9.5 0-17.39 6.93-18.92 16h-26.06c-.41-6.09-1.94-11.85-4.41-17.11l28.39-25.06c3.18 2.35 7.11 3.76 11.37 3.76 10.58 0 19.2-8.62 19.2-19.2 0-10.59-8.62-19.2-19.2-19.2 -10.59 0-19.2 8.61-19.2 19.2 0 4.01 1.24 7.74 3.36 10.83l-27.11 23.91c-8.57-13.19-23.4-21.95-40.26-21.95 -26.47 0-48 21.53-48 48 0 26.46 21.53 48 48 48 16.86 0 31.69-8.77 40.25-21.95l27.1 23.91c-2.12 3.08-3.37 6.81-3.37 10.83 0 10.58 8.61 19.2 19.2 19.2 10.58 0 19.2-8.62 19.2-19.2 0-10.59-8.62-19.2-19.2-19.2 -4.26 0-8.19 1.41-11.38 3.76l-28.4-25.06c2.47-5.26 4-11.03 4.4-17.11"/></svg>
